localPackages/DesignSystem/Sources/DesignSystem/Resources/Assets.xcassets/IconSet/ic-house-filled.imageset/ic-house-filled.svg

<svg width="24" height="24" viewBox="0 0 24 24" fill="none" xmlns="http://www.w3.org/2000/svg">
<g id="ic-house-filled">
<path id="Icon" d="M3 9.43414C3 8.97839 3.19773 8.54619 3.53972 8.25443L11.0397 1.85593C11.596 1.38136 12.404 1.38136 12.9603 1.85593L20.4603 8.25443C20.8023 8.54619 21 8.97839 21 9.43414V19.4644C21 20.3125 20.3284 21 19.5 21H14.25V14.3967C14.25 14.2271 14.1157 14.0896 13.95 14.0896H10.05C9.88431 14.0896 9.75 14.2271 9.75 14.3967V21H4.5C3.67157 21 3 20.3125 3 19.4644V9.43414Z" fill="#0F0F0F"/>
</g>
</svg>

<svg xmlns="http://www.w3.org/2000/svg" width="24" height="24" viewBox="0 0 24 24">
  <g class="ic-house-filled">
    <path d="M3 9.434c0-.456.198-.888.54-1.18l7.5-6.398a1.473 1.473 0 0 1 1.92 0l7.5 6.398c.342.292.54.724.54 1.18v10.03c0 .849-.672 1.536-1.5 1.536h-5.25v-6.603a.304.304 0 0 0-.3-.307h-3.9c-.166 0-.3.137-.3.307V21H4.5c-.828 0-1.5-.688-1.5-1.536V9.434Z" class="Icon"/>
  </g>
</svg>
